X: 121	% 29
T: If I Had A Bonnie Bonnet, Old Spanish Waltz
T: (Old Way)
S: Viola Ruth "Pioneer Western Folk Tunes" 1948 p.12 #1
R: waltz
Z: 2019 John Chambers <jc:trillian.mit.edu>
M: 3/4
L: 1/8
K: G
V: 1 name="29"
MD-MD |\
G3 (FGA) | B2 G2 (B,C) | D2 E2 B,2 | D2 C2 A,2 |\
A3 (GAB) | cBAGFE | D2 F2 E2 | D4 MD-MD |\
G3 (FGA) | B2 G2 (B,C) |
D2 E2 B,2 | D2 C2 A,2 |\
A3 (^GAB) | cBAGFE | D2 E2 F2 | G4 MB-MB ||\
B2 G2 MB-MB | B2 G2 B-B | (B2 c2 d2) | e2 d2 MA-MA |\
A2 F2 MA-MA |
A2 F2 MA-MA | A2 B2 ^c2 | d4 MD-MD |\
G3 (FGA) | B2 G2 (B,C) | D2 E2 B,2 | D2 C2 A,2 |\
A3 (GAB) | cB AGFE | D2 E2 F2 | G4 |]
